src/images/global/icons/social/google-plus-line.svg

<?xml version="1.0" encoding="UTF-8"?>
<svg width="48px" height="48px" viewBox="0 0 48 48" version="1.1" xmlns="http://www.w3.org/2000/svg" xmlns:xlink="http://www.w3.org/1999/xlink">
    <!-- Generator: Sketch 46.2 (44496) - http://www.bohemiancoding.com/sketch -->
    <title>icon/Social/googleplus-line</title>
    <desc>Created with Sketch.</desc>
    <defs>
        <path d="M16,1.84615385 C23.8044615,1.84615385 30.1538462,8.19553846 30.1538462,16 C30.1538462,23.8044615 23.8044615,30.1538462 16,30.1538462 C8.19553846,30.1538462 1.84615385,23.8044615 1.84615385,16 C1.84615385,8.19553846 8.19553846,1.84615385 16,1.84615385 M16,0 C24.8366154,0 32,7.16338462 32,16 C32,24.8366154 24.8366154,32 16,32 C7.16338462,32 0,24.8366154 0,16 C0,7.16338462 7.16338462,0 16,0 Z M16.5975385,17.3276923 C14.9664615,16.1366154 14.5666154,15.4647692 16.1261538,14.2589231 C17.0032308,13.58 17.6184615,12.66 17.6184615,11.5410769 C17.6184615,10.3233846 17.1213846,9.23215385 16.1847692,8.668 L17.5118462,8.668 L18.6413846,7.53846154 L13.5850769,7.53846154 C10.4289231,7.53846154 8.882,9.41753846 8.882,11.4986154 C8.882,13.624 10.3396923,15.2927692 13.1901538,15.2927692 C12.7469231,16.1847692 12.9258462,17.0056923 13.6481538,17.5938462 C8.78153846,17.5938462 7.74138462,19.7272308 7.74138462,21.3726154 C7.74138462,23.5023077 10.1898462,24.7692308 13.1287692,24.7692308 C17.1449231,24.7692308 18.7416923,22.6401538 18.7416923,20.8918462 C18.7415385,19.4667692 18.21,18.5338462 16.5975385,17.3276923 Z M10.7835385,11.4530769 C10.5478462,9.66215385 11.462,8.29276923 12.8238462,8.334 C14.1870769,8.37523077 15.3521538,9.84323077 15.5875385,11.6327692 C15.8235385,13.4233846 15.0381538,14.5733846 13.6752308,14.5336923 C12.3133846,14.4929231 11.0181538,13.2424615 10.7835385,11.4530769 M13.1426154,23.8192308 C11.1112308,23.8192308 9.646,22.5372308 9.646,20.9918462 C9.646,19.4795385 11.3669231,18.1732308 13.3975385,18.1961538 C15.6475385,18.1961538 16.9916923,19.5983077 16.9916923,21.0706154 C16.9916923,22.6144615 15.7375385,23.8192308 13.1426154,23.8192308 M22.2843077,14.6656923 L22.2843077,12.7595385 L21.0838462,12.7595385 L21.0838462,14.6656923 L19.1793846,14.6656923 L19.1793846,15.8650769 L21.0838462,15.8650769 L21.0838462,17.8398462 L22.2843077,17.8398462 L22.2843077,15.8650769 L24.2587692,15.8650769 L24.2587692,14.6656923 L22.2843077,14.6656923" id="path-1"></path>
    </defs>
    <g id="Symbols" stroke="none" stroke-width="1" fill="none" fill-rule="evenodd">
        <g id="icon/Social/googleplus-line">
            <g id="Icon" transform="translate(8.000000, 8.000000)">
                <mask id="mask-2" fill="white">
                    <use xlink:href="#path-1"></use>
                </mask>
                <use id="Mask" fill="#384048" xlink:href="#path-1"></use>
                <g id="Color/Grayscale/Night-Sky" mask="url(#mask-2)" fill="#111111">
                    <g transform="translate(-8.000000, -8.000000)" id="Swatch">
                        <rect x="0" y="0" width="48" height="48"></rect>
                    </g>
                </g>
            </g>
        </g>
    </g>
</svg>

<?xml version="1.0" encoding="utf-8"?>
<!-- Generator: Adobe Illustrator 21.0.2, SVG Export Plug-In . SVG Version: 6.00 Build 0)  -->
<svg version="1.1" id="icon_x2F_Social_x2F_googleplus-line-Layer_1" xmlns="http://www.w3.org/2000/svg" xmlns:xlink="http://www.w3.org/1999/xlink" x="0px" y="0px"
	 viewBox="0 0 48 48" style="enable-background:new 0 0 48 48;" xml:space="preserve">
<title>icon/Social/googleplus-line</title>
<desc>Created with Sketch.</desc>
<g id="icon_x2F_Social_x2F_googleplus-line-Symbols">
	<g id="icon_x2F_Social_x2F_googleplus-line">
		<g id="icon_x2F_Social_x2F_googleplus-line-Icon" transform="translate(8.000000, 8.000000)">
			<g id="icon_x2F_Social_x2F_googleplus-line-Mask">
				<path id="icon_x2F_Social_x2F_googleplus-line-path-1_1_" style="fill:#384048;" d="M16,1.8c7.8,0,14.2,6.3,14.2,14.2S23.8,30.2,16,30.2S1.8,23.8,1.8,16
					S8.2,1.8,16,1.8 M16,0c8.8,0,16,7.2,16,16s-7.2,16-16,16S0,24.8,0,16S7.2,0,16,0z M16.6,17.3c-1.6-1.2-2-1.9-0.5-3.1
					c0.9-0.7,1.5-1.6,1.5-2.7c0-1.2-0.5-2.3-1.4-2.9h1.3l1.1-1.1h-5.1c-3.2,0-4.7,1.9-4.7,4c0,2.1,1.5,3.8,4.3,3.8
					c-0.4,0.9-0.3,1.7,0.5,2.3c-4.9,0-5.9,2.1-5.9,3.8c0,2.1,2.4,3.4,5.4,3.4c4,0,5.6-2.1,5.6-3.9C18.7,19.5,18.2,18.5,16.6,17.3z
					 M10.8,11.5c-0.2-1.8,0.7-3.2,2-3.1c1.4,0,2.5,1.5,2.8,3.3c0.2,1.8-0.5,2.9-1.9,2.9C12.3,14.5,11,13.2,10.8,11.5 M13.1,23.8
					c-2,0-3.5-1.3-3.5-2.8c0-1.5,1.7-2.8,3.8-2.8c2.3,0,3.6,1.4,3.6,2.9C17,22.6,15.7,23.8,13.1,23.8 M22.3,14.7v-1.9h-1.2v1.9h-1.9
					v1.2h1.9v2h1.2v-2h2v-1.2H22.3"/>
			</g>
			<defs>
				<filter id="icon_x2F_Social_x2F_googleplus-line-Adobe_OpacityMaskFilter" filterUnits="userSpaceOnUse" x="-8" y="-8" width="48" height="48">
					<feColorMatrix  type="matrix" values="1 0 0 0 0  0 1 0 0 0  0 0 1 0 0  0 0 0 1 0"/>
				</filter>
			</defs>
			<mask maskUnits="userSpaceOnUse" x="-8" y="-8" width="48" height="48" id="icon_x2F_Social_x2F_googleplus-line-mask-2">
				<g style="filter:url(#icon_x2F_Social_x2F_googleplus-line-Adobe_OpacityMaskFilter);">
					<path id="icon_x2F_Social_x2F_googleplus-line-path-1" style="fill:#FFFFFF;" d="M16,1.8c7.8,0,14.2,6.3,14.2,14.2S23.8,30.2,16,30.2S1.8,23.8,1.8,16
						S8.2,1.8,16,1.8 M16,0c8.8,0,16,7.2,16,16s-7.2,16-16,16S0,24.8,0,16S7.2,0,16,0z M16.6,17.3c-1.6-1.2-2-1.9-0.5-3.1
						c0.9-0.7,1.5-1.6,1.5-2.7c0-1.2-0.5-2.3-1.4-2.9h1.3l1.1-1.1h-5.1c-3.2,0-4.7,1.9-4.7,4c0,2.1,1.5,3.8,4.3,3.8
						c-0.4,0.9-0.3,1.7,0.5,2.3c-4.9,0-5.9,2.1-5.9,3.8c0,2.1,2.4,3.4,5.4,3.4c4,0,5.6-2.1,5.6-3.9C18.7,19.5,18.2,18.5,16.6,17.3z
						 M10.8,11.5c-0.2-1.8,0.7-3.2,2-3.1c1.4,0,2.5,1.5,2.8,3.3c0.2,1.8-0.5,2.9-1.9,2.9C12.3,14.5,11,13.2,10.8,11.5 M13.1,23.8
						c-2,0-3.5-1.3-3.5-2.8c0-1.5,1.7-2.8,3.8-2.8c2.3,0,3.6,1.4,3.6,2.9C17,22.6,15.7,23.8,13.1,23.8 M22.3,14.7v-1.9h-1.2v1.9
						h-1.9v1.2h1.9v2h1.2v-2h2v-1.2H22.3"/>
				</g>
			</mask>
			<g id="icon_x2F_Social_x2F_googleplus-line-Color_x2F_Grayscale_x2F_Night-Sky" style="mask:url(#icon_x2F_Social_x2F_googleplus-line-mask-2);">
				<g id="icon_x2F_Social_x2F_googleplus-line-Swatch" transform="translate(-8.000000, -8.000000)">
					<rect style="fill:#111111;" width="48" height="48"/>
				</g>
			</g>
		</g>
	</g>
</g>
</svg>
